justvector/yahoo!.svg

<?xml version="1.0" encoding="iso-8859-1"?>
<!-- Generator: Adobe Illustrator 15.0.0, SVG Export Plug-In . SVG Version: 6.00 Build 0)  -->
<!DOCTYPE svg PUBLIC "-//W3C//DTD SVG 1.1//EN" "http://www.w3.org/Graphics/SVG/1.1/DTD/svg11.dtd">
<svg version="1.1" id="Icons" xmlns="http://www.w3.org/2000/svg" xmlns:xlink="http://www.w3.org/1999/xlink" x="0px" y="0px"
	 width="100px" height="100px" viewBox="0 0 100 100" style="enable-background:new 0 0 100 100;" xml:space="preserve">
<path id="Yahoo_x21_" d="M77.495,36.349c-2.203,0.594-22.352,16.219-23.68,20.053c-0.293,1.324,0.029,14.167,0.322,16.092
	c1.328,0.295,10.913,0.038,12.671,0.332l-0.21,3.97c-1.723-0.134-13.903-0.102-20.852-0.102c-3.532,0-14.885,0.39-18.372,0.288
	l0.659-3.778c1.914-0.142,9.831,0.352,11.566-1.497c0.863-0.92,0.592-13.124,0.299-15.188c-0.733-2.207-18.391-24.332-23.005-27.957
	H5V23h40.109v0.384c0.035,0,0.102,0.006,0.136,0.013l-0.136,0.94v4.225H33.014c5.391,7.883,13.12,17.4,16.416,21.973l16.155-14.64
	h-9.602l-1.353-5.556h35.175l-0.26,0.396c0.028,0,0.086,0.006,0.124,0.006l-2.513,3.645c-0.022,0-0.061,0.006-0.08,0.012
	l-1.013,1.497h-6.489C78.734,36.08,77.995,36.245,77.495,36.349z M88.972,71.183l-3.105-0.153l-3.464-0.422l0.028,5.939l2.733,0.235
	L88.109,77L88.972,71.183z M95,42.792c-1.048-0.037-10.576-0.939-11.814-1.184L83.332,66.7l5.392,0.436L95,42.792z"/>
</svg>

<?xml version="1.0" encoding="UTF-8" standalone="no"?>
<!DOCTYPE svg PUBLIC "-//W3C//DTD SVG 1.1//EN" "http://www.w3.org/Graphics/SVG/1.1/DTD/svg11.dtd">
<svg width="100%" height="100%" viewBox="0 0 100 100" version="1.1" xmlns="http://www.w3.org/2000/svg" xmlns:xlink="http://www.w3.org/1999/xlink" xml:space="preserve" xmlns:serif="http://www.serif.com/" style="fill-rule:evenodd;clip-rule:evenodd;stroke-linejoin:round;stroke-miterlimit:2;">
    <path id="Yahoo_x21_" d="M77.495,36.349C75.292,36.943 55.143,52.568 53.815,56.402C53.522,57.726 40.191,58.583 39.898,56.519C39.165,54.312 46.134,45.962 49.43,50.535L65.585,35.895L55.983,35.895L87.156,34.386C87.134,34.386 87.095,34.392 87.076,34.398L86.063,35.895L79.574,35.895C78.734,36.08 77.995,36.245 77.495,36.349ZM88.972,71.183L85.867,71.03L82.403,70.608L82.431,76.547L85.164,76.782L88.109,77L88.972,71.183ZM95,42.792C93.952,42.755 84.424,41.853 83.186,41.608L83.332,66.7L88.724,67.136L95,42.792Z" style="fill-rule:nonzero;"/>
</svg>
